web/abstruse/src/assets/images/avatars/avatar_1.svg

<svg width="200px" height="277px" viewBox="0 0 200 277" version="1.1" xmlns="http://www.w3.org/2000/svg" xmlns:xlink="http://www.w3.org/1999/xlink">
    <!-- Generator: Sketch 50.2 (55047) - http://www.bohemiancoding.com/sketch -->
    <desc>Created with Sketch.</desc>
    <defs>
        <path d="M124,144.610951 L124,163 L128,163 C167.764502,163 200,195.235498 200,235 L200,244 L0,244 L0,235 C-4.86974701e-15,195.235498 32.235498,163 72,163 L76,163 L76,144.610951 C58.7626345,136.422372 46.3722246,119.687011 44.3051388,99.8812385 C38.4803105,99.0577866 34,94.0521096 34,88 L34,74 C34,68.0540074 38.3245733,63.1180731 44,62.1659169 L44,56 C44,25.072054 69.072054,5.68137151e-15 100,0 C130.927946,-5.68137151e-15 156,25.072054 156,56 L156,62.1659169 C161.675427,63.1180731 166,68.0540074 166,74 L166,88 C166,94.0521096 161.51969,99.0577866 155.694861,99.8812385 C153.627775,119.687011 141.237365,136.422372 124,144.610951 Z" id="path-1"></path>
        <path d="M105.192402,29.0517235 C105.065362,30.0353144 105,31.0364513 105,32.0517235 C105,45.8588423 117.088312,57.0517235 132,57.0517235 C146.911688,57.0517235 159,45.8588423 159,32.0517235 C159,31.0364513 158.934638,30.0353144 158.807598,29.0517235 L160,29.0517235 C199.764502,29.0517235 232,61.2872215 232,101.051724 L232,110 L32,110 L32,101.051724 C32,61.2872215 64.235498,29.0517235 104,29.0517235 L105.192402,29.0517235 Z" id="path-3"></path>
        <rect id="path-5" x="0" y="0" width="264" height="280"></rect>
        <path d="M83.4984286,93.8410391 C72.1241067,94.2191416 67.0502492,99.7213834 63.2291365,94.1296214 C60.3611827,89.9323547 61.5611932,82.8739117 64.2409566,78.9027173 C68.0539313,73.2512381 73.2266239,75.9847769 79.010342,75.3400279 C80.5830033,75.1648137 82.1627854,74.7228407 83.4984286,74 C84.8340717,74.7228407 86.4135147,75.1648137 87.986176,75.3400279 C93.7702332,75.9847769 98.9425868,73.2512381 102.755901,78.9027173 C105.435325,82.8739117 106.635335,89.9323547 103.767382,94.1296214 C99.9462689,99.7213834 94.8727504,93.4629366 83.4984286,93.8410391 Z M138.719768,26 C135.335967,40.0748212 133.781202,54.4337754 131.327683,68.6711471 C130.816435,71.6390145 130.256705,74.5963095 129.662396,77.5496398 C129.537635,78.1697764 129.414569,80.4725746 128.810767,80.7643064 C126.981731,81.6484223 123.254159,76.9466834 122.257428,75.8851496 C119.754073,73.219256 117.272077,70.5292442 114.223231,68.437233 C108.062822,64.2102603 100.85042,61.7108818 93.3454397,61.117837 C90.2053971,60.8693859 85.9594573,61.3025234 83.0001146,63.1104016 C80.0407719,61.3025234 75.7948321,60.8693859 72.6544504,61.117837 C65.1494705,61.7108818 57.9370685,64.2102603 51.7766588,68.437233 C48.7278137,70.5292442 46.2461561,73.219256 43.742462,75.8851496 C42.7457307,76.9466834 39.018159,81.6484223 37.1891231,80.7643064 C36.5853209,80.4725746 36.4622551,78.1697764 36.3374942,77.5496398 C35.7431847,74.5963095 35.1834557,71.6390145 34.6722071,68.6711471 C32.2190276,54.4337754 30.6642623,40.0748212 27.2804612,26 C26.2959348,26 25.432101,44.7478165 25.3222572,46.4945731 C24.8750842,53.5889755 24.3529868,60.5254529 25.0201865,67.6261326 C26.1704958,79.8749043 27.3696246,95.2339402 36.5917624,104.58753 C44.9246396,113.039493 57.0232778,114.806417 67.4585647,120.141327 C68.8021178,120.828202 70.5843683,121.676306 72.5062968,122.37111 C74.5309497,123.934171 78.546353,125 83.1719999,125 C88.024115,125 92.2046231,123.827456 94.1201102,122.137856 C95.8006534,121.49261 97.3452479,120.752874 98.5413255,120.141327 C108.975814,114.805245 121.075251,113.039493 129.408128,104.58753 C138.630266,95.2339402 139.829394,79.8749043 140.980043,67.6261326 C141.646903,60.5254529 141.124806,53.5889755 140.677972,46.4945731 C140.567789,44.7478165 139.703955,26 138.719768,26 Z" id="path-7"></path>
        <path d="M83.9715662,55.8170722 C60.5101967,69.4143577 22.8618971,82.1112789 29.0002187,138 C9.62244645,132.999216 -0.0442202163,117.440393 0.00021866091,91.3235294 C0.0804892181,44.1482783 52.0737254,6.80154462e-15 82.0002187,0 C82.6684563,0 83.3328225,0.0296343217 83.9916927,0.0880667845 C84.6559706,0.0296343787 85.3259486,0 86,0 C115.850571,6.80154462e-15 167.918252,44.1482824 168,91.3235294 C168.044149,116.801277 158.377483,132.360101 139,138 C145.114919,82.1112884 107.404232,69.414362 83.9715543,55.8170792 Z" id="path-9"></path>
    </defs>
    <g id="Introduction" stroke="none" stroke-width="1" fill="none" fill-rule="evenodd">
        <g id="Intro" transform="translate(-327.000000, -332.000000)">
            <g id="back" transform="translate(295.000000, 329.000000)">
                <g id="Avataaar/Default">
                    <g id="Body" stroke-width="1" fill-rule="evenodd" transform="translate(32.000000, 36.000000)">
                        <mask id="mask-2" fill="white">
                            <use xlink:href="#path-1"></use>
                        </mask>
                        <use fill="#D0C6AC" xlink:href="#path-1"></use>
                        <g id="Skin/👶🏽-03-Brown" mask="url(#mask-2)" fill="#D08B5B">
                            <g transform="translate(-32.000000, 0.000000)" id="Color">
                                <rect x="0" y="0" width="264" height="244"></rect>
                            </g>
                        </g>
                        <path d="M156,94 L156,102 C156,132.927946 130.927946,158 100,158 C69.072054,158 44,132.927946 44,102 L44,94 C44,124.927946 69.072054,150 100,150 C130.927946,150 156,124.927946 156,94 Z" id="Neck-Shadow" fill-opacity="0.100000001" fill="#000000" mask="url(#mask-2)"></path>
                    </g>
                    <g id="Clothing/Blazer-+-Sweater" transform="translate(0.000000, 170.000000)">
                        <mask id="mask-4" fill="white">
                            <use xlink:href="#path-3"></use>
                        </mask>
                        <use id="Clothes" fill="#E6E6E6" fill-rule="evenodd" xlink:href="#path-3"></use>
                        <g id="Color/Palette/Black" mask="url(#mask-4)" fill="#262E33" fill-rule="evenodd">
                            <rect id="🖍Color" x="0" y="0" width="264" height="110"></rect>
                        </g>
                        <g id="Blazer" stroke-width="1" fill-rule="evenodd" transform="translate(32.000000, 28.000000)">
                            <path d="M68.784807,1.12222847 C65.7399891,12.7311115 64,26.1729736 64,40.5 C64,55.7087296 65.9607412,69.9199941 69.3616767,82 L0,82 L0,73.0517235 C-4.73780084e-15,34.3646437 30.512317,2.80409739 68.784807,1.12222847 Z M131.638323,82 C135.039259,69.9199941 137,55.7087296 137,40.5 C137,26.1942016 135.265163,12.7709464 132.228719,1.17384225 C170.024954,3.36285166 200,34.7067641 200,73.0517235 L200,82 L131.638323,82 Z" id="Saco" fill="#3A4C5A"></path>
                            <path d="M149,58 L158.555853,50.83311 C159.998897,49.7508275 161.987779,49.7682725 163.411616,50.8757011 L170,56 L149,58 Z" id="Pocket-hanky" fill="#E6E6E6"></path>
                            <path d="M69,1.13686838e-13 C65,19.3333333 66.6666667,46.6666667 74,82 L58,82 L44,46 L50,37 L44,31 L63,1 C65.027659,0.369238637 67.027659,0.0359053037 69,1.13686838e-13 Z" id="Wing" fill="#2F4351"></path>
                            <path d="M151,1.13686838e-13 C147,19.3333333 148.666667,46.6666667 156,82 L140,82 L126,46 L132,37 L126,31 L145,1 C147.027659,0.369238637 149.027659,0.0359053037 151,1.13686838e-13 Z" id="Wing" fill="#2F4351" transform="translate(141.000000, 41.000000) scale(-1, 1) translate(-141.000000, -41.000000) "></path>
                        </g>
                        <path d="M156,21.5390062 C162.772319,26.1359565 167,32.6563196 167,39.8878801 C167,47.2887711 162.572015,53.9447688 155.520105,58.5564942 L149.57933,53.8764929 L145,54.207887 L146,51.0567821 L145.922229,50.995516 C152.022491,47.8530505 156,42.7003578 156,36.8768102 L156,21.5390062 Z M108,21.5390062 L108,36.8768102 C108,42.7003578 111.977509,47.8530505 118.077771,50.995516 L118,51.0567821 L119,54.207887 L114.42067,53.8764929 L108.479895,58.5564942 C101.427985,53.9447688 97,47.2887711 97,39.8878801 C97,32.6563196 101.227681,26.1359565 108,21.5390062 Z" id="Collar" fill="#F2F2F2" fill-rule="evenodd"></path>
                    </g>
                    <g id="Face" stroke-width="1" fill-rule="evenodd" transform="translate(76.000000, 82.000000)" fill="#000000">
                        <g id="Mouth/Default" transform="translate(2.000000, 52.000000)" fill-opacity="0.699999988">
                            <path d="M40,15 C40,22.7319865 46.2680135,29 54,29 C61.7319865,29 68,22.7319865 68,15" id="Mouth"></path>
                        </g>
                        <g id="Nose/Default" transform="translate(28.000000, 40.000000)" fill-opacity="0.16">
                            <path d="M16,8 C16,12.418278 21.372583,16 28,16 C34.627417,16 40,12.418278 40,8" id="Nose"></path>
                        </g>
                        <g id="Eyes/Closed-😌" transform="translate(0.000000, 8.000000)" fill-opacity="0.599999964">
                            <path d="M16.1601674,32.4473116 C18.006676,28.648508 22.1644225,26 26.9975803,26 C31.8136766,26 35.9591217,28.629842 37.8153518,32.4071242 C38.3667605,33.5291977 37.5821037,34.4474817 36.790607,33.7670228 C34.3395063,31.6597833 30.8587163,30.3437884 26.9975803,30.3437884 C23.2572061,30.3437884 19.8737584,31.5787519 17.4375392,33.5716412 C16.5467928,34.3002944 15.6201012,33.5583844 16.1601674,32.4473116 Z" id="Closed-Eye" transform="translate(27.000000, 30.000000) scale(1, -1) translate(-27.000000, -30.000000) "></path>
                            <path d="M74.1601674,32.4473116 C76.006676,28.648508 80.1644225,26 84.9975803,26 C89.8136766,26 93.9591217,28.629842 95.8153518,32.4071242 C96.3667605,33.5291977 95.5821037,34.4474817 94.790607,33.7670228 C92.3395063,31.6597833 88.8587163,30.3437884 84.9975803,30.3437884 C81.2572061,30.3437884 77.8737584,31.5787519 75.4375392,33.5716412 C74.5467928,34.3002944 73.6201012,33.5583844 74.1601674,32.4473116 Z" id="Closed-Eye" transform="translate(85.000000, 30.000000) scale(1, -1) translate(-85.000000, -30.000000) "></path>
                        </g>
                        <g id="Eyebrow/Outline/Default" fill-opacity="0.599999964">
                            <g id="I-Browse" transform="translate(12.000000, 6.000000)">
                                <path d="M3.63024536,11.1585767 C7.54515501,5.64986673 18.2779197,2.56083721 27.5230268,4.83118046 C28.5957248,5.0946055 29.6788665,4.43856013 29.9422916,3.36586212 C30.2057166,2.2931641 29.5496712,1.21002236 28.4769732,0.94659732 C17.7403633,-1.69001789 5.31209962,1.88699832 0.369754639,8.84142326 C-0.270109626,9.74178291 -0.0589363917,10.9903811 0.84142326,11.6302454 C1.74178291,12.2701096 2.9903811,12.0589364 3.63024536,11.1585767 Z" id="Eyebrow" fill-rule="nonzero"></path>
                                <path d="M61.6302454,11.1585767 C65.545155,5.64986673 76.2779197,2.56083721 85.5230268,4.83118046 C86.5957248,5.0946055 87.6788665,4.43856013 87.9422916,3.36586212 C88.2057166,2.2931641 87.5496712,1.21002236 86.4769732,0.94659732 C75.7403633,-1.69001789 63.3120996,1.88699832 58.3697546,8.84142326 C57.7298904,9.74178291 57.9410636,10.9903811 58.8414233,11.6302454 C59.7417829,12.2701096 60.9903811,12.0589364 61.6302454,11.1585767 Z" id="Eyebrow" fill-rule="nonzero" transform="translate(73.000154, 6.039198) scale(-1, 1) translate(-73.000154, -6.039198) "></path>
                            </g>
                        </g>
                    </g>
                    <g id="Top" stroke-width="1" fill-rule="evenodd">
                        <mask id="mask-6" fill="white">
                            <use xlink:href="#path-5"></use>
                        </mask>
                        <g id="Mask"></g>
                        <g id="Top/Accesories/Turban" mask="url(#mask-6)">
                            <g transform="translate(-1.000000, 0.000000)">
                                <g id="Facial-Hair/Beard-Medium" transform="translate(50.000000, 72.000000)">
                                    <mask id="mask-8" fill="white">
                                        <use xlink:href="#path-7"></use>
                                    </mask>
                                    <use id="Beardness" fill="#252E32" fill-rule="evenodd" xlink:href="#path-7"></use>
                                    <g id="Color/Hair/Brown" mask="url(#mask-8)" fill="#724133" fill-rule="evenodd">
                                        <rect id="Color" x="0" y="0" width="166" height="152"></rect>
                                    </g>
                                </g>
                                <g id="Turban" stroke-width="1" fill-rule="evenodd" transform="translate(1.000000, 0.000000)">
                                    <path d="M74.5304294,97.5 C73.529284,95.0905557 73,92.5798498 73,90 C73,71.7746033 99.4151998,57 132,57 C164.5848,57 191,71.7746033 191,90 C191,92.5798498 190.470716,95.0905557 189.469571,97.5 C183.398106,82.8878805 159.972341,72 132,72 C104.027659,72 80.6018941,82.8878805 74.5304294,97.5 Z" id="Band" fill="#EDECE3"></path>
                                    <g transform="translate(48.000000, 3.000000)">
                                        <mask id="mask-10" fill="white">
                                            <use xlink:href="#path-9"></use>
                                        </mask>
                                        <use id="Turban-Mask" fill="#124C74" xlink:href="#path-9"></use>
                                        <g id="Color/Palette/Blue-03" mask="url(#mask-10)" fill="#25557C">
                                            <g transform="translate(-48.000000, -3.000000)" id="🖍Color">
                                                <rect x="0" y="0" width="264" height="280"></rect>
                                            </g>
                                        </g>
                                    </g>
                                    <path d="M48.0110963,96.0123559 C48.3807929,121.112082 58.0438337,136.107963 77.0002187,141 C57.6224465,136.289117 47.9557798,121.632254 48.0002187,97.0294118 C48.0008313,96.6902213 48.0044682,96.351197 48.0110963,96.0123559 Z M152.645822,30.4681115 C153.39011,36.1953086 152.126202,42.8891982 148.000219,50.135763 C136.847465,71.5667661 76.561434,72.0039826 76.3339794,129.679698 C76.1051437,67.7612631 136.805324,67.3799133 148.000219,44.5441176 C150.669864,39.5668152 152.141299,34.8351296 152.645822,30.4681115 Z" id="Shadow" fill-opacity="0.16" fill="#000000"></path>
                                </g>
                                <g id="Top/_Resources/Blank" transform="translate(62.000000, 85.000000)"></g>
                            </g>
                        </g>
                    </g>
                </g>
            </g>
        </g>
    </g>
</svg>

<svg width="200" height="277" xmlns="http://www.w3.org/2000/svg" xmlns:xlink="http://www.w3.org/1999/xlink"><defs><path d="M124 144.611V163h4c39.765 0 72 32.235 72 72v9H0v-9c0-39.765 32.235-72 72-72h4v-18.389c-17.237-8.189-29.628-24.924-31.695-44.73C38.48 99.058 34 94.052 34 88V74c0-5.946 4.325-10.882 10-11.834V56c0-30.928 25.072-56 56-56s56 25.072 56 56v6.166c5.675.952 10 5.888 10 11.834v14c0 6.052-4.48 11.058-10.305 11.881-2.067 19.806-14.458 36.541-31.695 44.73z" id="a"/><path d="M105.192 29.052a23.41 23.41 0 00-.192 3c0 13.807 12.088 25 27 25s27-11.193 27-25a23.41 23.41 0 00-.192-3H160c39.765 0 72 32.235 72 72V110H32v-8.948c0-39.765 32.235-72 72-72h1.192z" id="c"/><path id="e" d="M0 0h264v280H0z"/><path d="M83.498 93.841c-11.374.378-16.448 5.88-20.269.289-2.868-4.198-1.668-11.256 1.012-15.227 3.813-5.652 8.986-2.918 14.77-3.563 1.572-.175 3.152-.617 4.487-1.34 1.336.723 2.916 1.165 4.488 1.34 5.784.645 10.957-2.089 14.77 3.563 2.68 3.97 3.88 11.03 1.011 15.227-3.82 5.591-8.894-.667-20.269-.289zM138.72 26c-3.384 14.075-4.939 28.434-7.392 42.671a322.61 322.61 0 01-1.666 8.879c-.124.62-.247 2.923-.851 3.214-1.83.884-5.557-3.817-6.554-4.879-2.503-2.666-4.985-5.356-8.034-7.448-6.16-4.227-13.373-6.726-20.878-7.32-3.14-.248-7.386.186-10.345 1.993-2.96-1.807-7.205-2.24-10.346-1.992-7.505.593-14.717 3.092-20.877 7.32-3.05 2.091-5.53 4.781-8.035 7.447-.996 1.062-4.724 5.763-6.553 4.88-.604-.292-.727-2.595-.852-3.215a322.61 322.61 0 01-1.665-8.879C32.22 54.434 30.664 40.075 27.28 26c-.984 0-1.848 18.748-1.958 20.495-.447 7.094-.969 14.03-.302 21.131 1.15 12.249 2.35 27.608 11.572 36.962 8.333 8.451 20.431 10.218 30.867 15.553 1.343.687 3.125 1.535 5.047 2.23 2.025 1.563 6.04 2.629 10.666 2.629 4.852 0 9.033-1.173 10.948-2.862a46.308 46.308 0 004.421-1.997c10.435-5.336 22.534-7.102 30.867-15.553 9.222-9.354 10.421-24.713 11.572-36.962.667-7.1.145-14.037-.302-21.131-.11-1.747-.974-20.495-1.958-20.495z" id="g"/><path d="M83.972 55.817C60.51 69.414 22.862 82.111 29 138 9.622 133-.044 117.44 0 91.324.08 44.148 52.074 0 82 0c.668 0 1.333.03 1.992.088A22.918 22.918 0 0186 0c29.85 0 81.918 44.148 82 91.324.044 25.477-9.623 41.036-29 46.676 6.115-55.889-31.596-68.586-55.028-82.183z" id="i"/></defs><g fill="none" fill-rule="evenodd"><g transform="translate(0 33)"><mask id="b" fill="#fff"><use xlink:href="#a"/></mask><use fill="#D0C6AC" xlink:href="#a"/><g mask="url(#b)" fill="#D08B5B"><path d="M-32 0h264v244H-32z"/></g><path d="M156 94v8c0 30.928-25.072 56-56 56s-56-25.072-56-56v-8c0 30.928 25.072 56 56 56s56-25.072 56-56z" fill-opacity=".1" fill="#000" mask="url(#b)"/></g><g transform="translate(-32 167)"><mask id="d" fill="#fff"><use xlink:href="#c"/></mask><use fill="#E6E6E6" xlink:href="#c"/><g mask="url(#d)" fill="#262E33"><path d="M0 0h264v110H0z"/></g><path d="M100.785 29.122C97.74 40.732 96 54.173 96 68.5c0 15.209 1.96 29.42 5.362 41.5H32v-8.948c0-38.687 30.512-70.248 68.785-71.93zM163.638 110C167.04 97.92 169 83.709 169 68.5c0-14.306-1.735-27.73-4.771-39.326C202.025 31.363 232 62.707 232 101.052V110h-68.362z" fill="#3A4C5A"/><path d="M181 86l9.556-7.167a4 4 0 014.856.043L202 84l-21 2z" fill="#E6E6E6"/><path d="M101 28c-4 19.333-2.333 46.667 5 82H90L76 74l6-9-6-6 19-30c2.028-.63 4.028-.964 6-1zM163 28c4 19.333 2.333 46.667-5 82h16l14-36-6-9 6-6-19-30c-2.028-.63-4.028-.964-6-1z" fill="#2F4351"/><path d="M156 21.539c6.772 4.597 11 11.117 11 18.349 0 7.4-4.428 14.057-11.48 18.668l-5.94-4.68-4.58.332 1-3.151-.078-.061C152.022 47.853 156 42.7 156 36.876V21.54zm-48 0v15.338c0 5.823 3.978 10.976 10.078 14.119l-.078.06 1 3.152-4.58-.332-5.94 4.68C101.428 53.945 97 47.29 97 39.888c0-7.232 4.228-13.752 11-18.349z" fill="#F2F2F2"/></g><g fill="#000"><path d="M86 146c0 7.732 6.268 14 14 14s14-6.268 14-14" fill-opacity=".7"/><path d="M88 127c0 4.418 5.373 8 12 8s12-3.582 12-8" fill-opacity=".16"/><g fill-opacity=".6"><path d="M60.16 114.553C62.007 118.35 66.164 121 70.998 121c4.816 0 8.961-2.63 10.817-6.407.552-1.122-.233-2.04-1.024-1.36-2.451 2.107-5.932 3.423-9.793 3.423-3.74 0-7.124-1.235-9.56-3.228-.891-.728-1.818.014-1.278 1.125zM118.16 114.553c1.847 3.798 6.004 6.447 10.838 6.447 4.816 0 8.961-2.63 10.817-6.407.552-1.122-.233-2.04-1.024-1.36-2.451 2.107-5.932 3.423-9.793 3.423-3.74 0-7.124-1.235-9.56-3.228-.891-.728-1.818.014-1.278 1.125z"/></g><g fill-rule="nonzero" fill-opacity=".6"><path d="M59.63 96.159c3.915-5.51 14.648-8.598 23.893-6.328a2 2 0 00.954-3.884c-10.737-2.637-23.165.94-28.107 7.894a2 2 0 003.26 2.318zM140.37 96.159c-3.915-5.51-14.648-8.598-23.893-6.328a2 2 0 01-.954-3.884c10.737-2.637 23.165.94 28.108 7.894a2 2 0 01-3.26 2.318z"/></g></g><g transform="translate(-32 -3)"><mask id="f" fill="#fff"><use xlink:href="#e"/></mask><g mask="url(#f)"><g transform="translate(49 72)"><mask id="h" fill="#fff"><use xlink:href="#g"/></mask><use fill="#252E32" xlink:href="#g"/><g mask="url(#h)" fill="#724133"><path d="M0 0h166v152H0z"/></g></g><path d="M74.53 97.5c-1-2.41-1.53-4.92-1.53-7.5 0-18.225 26.415-33 59-33s59 14.775 59 33c0 2.58-.53 5.09-1.53 7.5C183.398 82.888 159.972 72 132 72c-27.972 0-51.398 10.888-57.47 25.5z" fill="#EDECE3"/><g transform="translate(48 3)"><mask id="j" fill="#fff"><use xlink:href="#i"/></mask><use fill="#124C74" xlink:href="#i"/><g mask="url(#j)" fill="#25557C"><path d="M-48-3h264v280H-48z"/></g></g><path d="M48.011 96.012c.37 25.1 10.033 40.096 28.99 44.988-19.379-4.71-29.045-19.368-29-43.97 0-.34.003-.679.01-1.018zm104.635-65.544c.744 5.727-.52 12.421-4.646 19.668-11.153 21.43-71.439 21.868-71.666 79.544-.229-61.919 60.471-62.3 71.666-85.136 2.67-4.977 4.141-9.709 4.646-14.076z" fill-opacity=".16" fill="#000"/></g></g></g></svg>
